X:4480
T:Murphy's Reel
O:england
C:Charlie Mulvihill
R:reel
D:Paddy Moloney & Sean Potts: Tin Whistles.
M:C|
K:D
AF~F2 G2FG|AF~F2 EGFE|D2FA dfec|dBAF E2FG|
AF~F2 G2FG|AF~F2 EGFE|D2FA dfec|1 dBAF D2dB:|2 dBAF D4||
|:~f3a g2fg|afdf edBd|~f3e dfec|dBAF E2fg|
af~f2 bf~f2|afdf edBd|~f3e dfec|1 dBAF D4:|2 dBAF D2dB||
